images/oceana_logo.svg

<svg width="814" height="172" viewBox="0 0 814 172" fill="none" xmlns="http://www.w3.org/2000/svg">
<path d="M390.588 22.42C391.792 19.1579 393.417 12.2052 388.956 0.995049C379.537 4.51203 369.767 7.00141 359.815 8.42003C330.325 12.612 305.798 6.33493 290.897 0.995049V170.847H388.956V142.36H320.764V105.09H375.948V76.1893H320.916H320.735V39.5439C356.122 48.2911 384.422 39.0935 390.588 22.42Z" fill="#004B66"/>
<path d="M488.98 0.995049H442.414L400.606 170.854H437.183C437.495 166.27 437.952 161.409 438.634 156.389C439.258 151.543 439.998 146.945 440.81 142.585C443.93 143.704 464.815 150.802 481.493 138.953C485.288 136.24 488.535 132.83 491.062 128.905C498.019 153.403 502.763 170.193 502.821 170.542C502.825 170.596 502.84 170.65 502.865 170.698C502.89 170.747 502.924 170.79 502.966 170.825C503.039 170.861 503.118 170.88 503.199 170.88C503.279 170.88 503.359 170.861 503.431 170.825H533.841L488.98 0.995049ZM462.291 117.47C459.576 117.638 456.851 117.552 454.151 117.216C452.021 116.922 449.917 116.456 447.862 115.821L466.926 37.4225C473.18 60.7436 479.431 84.0647 485.679 107.386C476.568 114.063 467.761 117.07 462.291 117.47Z" fill="#004B66"/>
<path d="M769.175 2.04126H722.609L680.801 171.9H717.378C717.69 167.316 718.147 162.456 718.793 157.435C719.417 152.59 720.157 147.991 720.969 143.632C724.088 144.751 744.974 151.849 761.652 139.999C765.447 137.286 768.694 133.876 771.221 129.951C778.178 154.449 782.922 171.239 782.98 171.588C782.984 171.643 782.999 171.696 783.024 171.744C783.049 171.793 783.083 171.836 783.125 171.871C783.197 171.907 783.277 171.926 783.357 171.926C783.438 171.926 783.517 171.907 783.589 171.871H814C799.065 115.271 784.124 58.661 769.175 2.04126ZM742.486 118.516C739.771 118.684 737.046 118.599 734.346 118.262C732.215 117.966 730.112 117.497 728.057 116.86L747.121 38.4687C753.375 61.7753 759.621 85.094 765.859 108.425C756.762 115.101 747.948 118.117 742.486 118.516Z" fill="#004B66"/>
<path d="M544.368 1.72161L566.857 1.8306C567.807 2.01949 569.367 2.34641 571.209 2.88403C593.916 9.37181 606.836 29.5108 614.228 41.0406C619.906 49.9167 624.532 59.4256 628.011 69.3747C636.666 95.3839 637.754 116.402 638.632 116.315C639.045 116.271 638.908 112.464 638.908 112.464C638.908 112.464 635.541 19.2669 635.52 8.74701C635.52 6.66192 635.52 4.34434 635.52 4.34434V3.02207C638.421 2.6685 641.427 2.38032 644.537 2.15752C653.232 1.54596 661.961 1.56781 670.653 2.2229L668.868 171.893H627.424C626.993 172.036 626.527 172.036 626.096 171.893C624.972 171.486 624.254 169.91 624.486 168.006C622.976 146.918 619.412 126.028 613.843 105.635C611.467 96.9272 608.326 88.4472 604.456 80.2942C599.559 70.0067 594.619 59.8864 584.042 51.2336C580.994 48.7521 577.712 46.5743 574.241 44.7313C575.482 61.0125 576.36 78.0783 576.73 95.8561C577.296 122.737 576.657 148.165 575.221 171.857H542.445C543.098 115.164 543.739 58.4527 544.368 1.72161Z" fill="#004B66"/>
<path d="M163.249 27.1423C172.941 13.3385 191.541 0.646324 214.073 0.0215214C218.941 -0.109251 241.539 -0.167357 258.572 16.5425C260.872 18.8019 269.947 27.8906 273.436 41.1205C275.613 49.3591 276.258 61.5936 276.338 63.5916C276.454 65.7711 276.498 67.5729 276.519 68.8007C269.039 69.423 261.526 69.5346 254.031 69.1349C248.227 68.8225 242.902 68.234 238.006 67.4857C237.824 65.0591 237.512 61.4047 236.968 56.9803C235.866 47.9715 235.314 43.4671 234.067 41.0406C230.106 33.4121 218.216 28.5372 208.596 30.8693C195.785 33.9788 190.62 48.9813 187.246 58.7748C183.808 68.7716 183.619 76.8868 183.554 84.6677C183.38 101.683 183.293 118.596 194.965 131.542C197.33 134.158 204.911 142.571 216.953 143.98C230.809 145.608 245.246 137.333 254.125 122.911H273.901C273.973 124.764 273.98 126.733 273.901 128.803C273.85 130.068 273.77 131.281 273.668 132.436C273.262 135.078 272.531 137.66 271.492 140.123C269.374 145.012 258.238 162.209 236.214 169.183C210.345 177.349 187.558 164.991 184.577 163.32C149.233 143.356 147.057 97.5561 146.709 89.9205C145.903 72.7166 150.082 57.6995 152.12 51.3207C154.667 43.3581 157.365 35.519 163.249 27.1423Z" fill="#004B66"/>
<path d="M102.551 10.1203C93.1809 4.39363 82.6018 0.944995 71.6613 0.0508652C63.6016 0.181638 49.441 1.58382 35.4689 10.1858C3.37532 29.9397 0.720201 70.0941 0.197881 78.4781C-1.64474 107.829 9.22965 146.771 39.1905 163.662C47.9689 168.532 57.743 171.328 67.7657 171.835V171.901H68.4911L70.2394 171.966V171.821C80.2608 171.3 90.0325 168.502 98.8147 163.64C133.309 144.264 137.263 99.0893 137.706 92.9358C138.003 89.0198 141.166 34.197 102.551 10.1203ZM100.628 88.6856C100.585 90.3857 100.476 92.1221 100.324 93.8657C98.6115 116.032 90.2399 136.657 77.5664 142.186C72.0373 144.259 65.946 144.259 60.4169 142.186C47.7434 136.657 39.3791 116.032 37.6598 93.873C37.5002 92.1221 37.3914 90.3857 37.3551 88.6856C37.3551 87.8574 37.3551 87.0219 37.3551 86.1792C37.2318 66.9047 42.2809 47.6739 54.0403 37.1176C57.8634 33.0419 62.1725 30.4119 66.8081 29.9179C68.2943 29.8404 69.7834 29.8404 71.2696 29.9179C75.9052 30.4119 80.2215 33.0419 84.0374 37.1176C95.7678 47.6521 100.817 66.9047 100.723 86.1792C100.628 87.0219 100.628 87.8574 100.628 88.6856Z" fill="#004B66"/>
</svg>

<svg xmlns="http://www.w3.org/2000/svg" width="814" height="172" fill="#004b66"  xmlns:v="https://vecta.io/nano"><path d="M390.588 22.42c1.204-3.262 2.829-10.215-1.632-21.425a139.64 139.64 0 0 1-29.141 7.425c-29.49 4.192-54.017-2.085-68.918-7.425v169.852h98.059V142.36h-68.192v-37.27h55.184V76.189h-55.213V39.544c35.387 8.747 63.687-.45 69.853-17.124zM488.98.995h-46.566l-41.808 169.859h36.577c.312-4.584.769-9.445 1.451-14.465.624-4.846 1.364-9.444 2.176-13.804 3.12 1.119 24.005 8.217 40.683-3.632 3.795-2.713 7.042-6.123 9.569-10.048l11.759 41.637c.004.054.019.108.044.156s.059.092.101.127c.073.036.152.055.233.055a.52.52 0 0 0 .232-.055h30.41L488.98.995zM462.291 117.47a43.94 43.94 0 0 1-8.14-.254c-2.13-.294-4.234-.76-6.289-1.395l19.064-78.398 18.753 69.964c-9.111 6.677-17.918 9.684-23.388 10.084zM769.175 2.041h-46.566L680.801 171.9h36.577c.312-4.584.769-9.444 1.415-14.465.624-4.845 1.364-9.444 2.176-13.803 3.119 1.119 24.005 8.217 40.683-3.633 3.795-2.713 7.042-6.123 9.569-10.048l11.759 41.637a.4.4 0 0 0 .044.156c.025.049.059.092.101.127a.52.52 0 0 0 .464 0H814L769.175 2.041zm-26.689 116.475c-2.715.168-5.44.083-8.14-.254-2.131-.296-4.234-.765-6.289-1.402l19.064-78.391 18.738 69.956c-9.097 6.676-17.911 9.692-23.373 10.091zM544.368 1.722l22.489.109 4.352 1.053c22.707 6.488 35.627 26.627 43.019 38.157a135.71 135.71 0 0 1 13.783 28.334c8.655 26.009 9.743 47.027 10.621 46.94.413-.044.276-3.851.276-3.851L635.52 8.747V3.022a181.89 181.89 0 0 1 9.017-.865c8.695-.612 17.424-.59 26.116.065l-1.785 169.67h-41.444a2.11 2.11 0 0 1-1.328 0c-1.124-.407-1.842-1.983-1.61-3.887-1.51-21.088-5.074-41.978-10.643-62.371a153.04 153.04 0 0 0-9.387-25.341c-4.897-10.288-9.837-20.408-20.414-29.061a60.35 60.35 0 0 0-9.801-6.502 926.11 926.11 0 0 1 2.489 51.125c.566 26.881-.073 52.309-1.509 76.001h-32.776l1.923-170.135zm-381.119 25.42C172.941 13.339 191.541.646 214.073.022c4.868-.131 27.466-.189 44.499 16.521 2.3 2.259 11.375 11.348 14.864 24.578 2.177 8.239 2.822 20.473 2.902 22.471.116 2.18.16 3.981.181 5.209a165.15 165.15 0 0 1-22.488.334 164.12 164.12 0 0 1-16.025-1.649c-.182-2.427-.494-6.081-1.038-10.505-1.102-9.009-1.654-13.513-2.901-15.94-3.961-7.628-15.851-12.503-25.471-10.171-12.811 3.11-17.976 18.112-21.35 27.906-3.438 9.997-3.627 18.112-3.692 25.893-.174 17.015-.261 33.928 11.411 46.874 2.365 2.616 9.946 11.029 21.988 12.438 13.856 1.628 28.293-6.647 37.172-21.069h19.776c.072 1.853.079 3.822 0 5.892-.051 1.265-.131 2.478-.233 3.633-.406 2.642-1.137 5.224-2.176 7.687-2.118 4.889-13.254 22.086-35.278 29.06-25.869 8.166-48.656-4.192-51.637-5.863-35.344-19.964-37.52-65.764-37.868-73.399-.806-17.204 3.373-32.221 5.411-38.6 2.547-7.963 5.245-15.802 11.129-24.178zM102.551 10.12A70.2 70.2 0 0 0 71.661.051c-8.06.131-22.22 1.533-36.192 10.135C3.375 29.94.72 70.094.198 78.478c-1.843 29.351 9.032 68.293 38.993 85.184a65.75 65.75 0 0 0 28.575 8.173v.066h.725l1.748.065v-.145a66.08 66.08 0 0 0 28.575-8.181c34.494-19.376 38.448-64.551 38.891-70.704.297-3.916 3.46-58.739-35.155-82.815zm-1.923 78.565a84.45 84.45 0 0 1-.304 5.18c-1.712 22.166-10.084 42.791-22.758 48.32-5.529 2.073-11.62 2.073-17.15 0-12.673-5.529-21.038-26.154-22.757-48.313a75.14 75.14 0 0 1-.305-5.187v-2.506c-.123-19.274 4.926-38.505 16.685-49.062 3.823-4.076 8.132-6.706 12.768-7.2a42.57 42.57 0 0 1 4.462 0c4.636.494 8.952 3.124 12.768 7.2 11.73 10.534 16.78 29.787 16.686 49.062-.095.843-.095 1.678-.095 2.506z"/></svg>
